X: 8686
T: Crossing To Ireland
R: waltz
M: 3/4
K: Dmajor
|:E/F/|GEE B,EE|G3/ F/G/A/ BAG|FDD A,DD|F3/ E/F/G/ A2E/F/|
GEE B, EE|G3/ F/G/A/ B2 A|G3/A/B/c/ dcB|AGF E2:|
|:e/f/|gee Bee|g3/ f/g/a/ bag|fdd Add|f3/ e/f/g/ a2 e/f/|
gee Bee|g3/f/g/a/ b2 a|g3/ f/g/a/ bag|fe^d e2:|

